X:1
T:Hubert, 77.77 D
T:Hubert, 77.77 D
T:Hubert Platt Main, 1900
T:Public Domain Courtesy of the Cyber Hymnal™
C:Hubert Platt Main, 1900
Z:Public Domain
Z:Courtesy of the Cyber Hymnal™
%%score ( 1 2 ) ( 3 4 )
L:1/8
M:9/8
K:Ab
V:1 treble 
V:2 treble 
V:3 bass 
V:4 bass 
V:1
 [CE]2 [CE] | [CA]3- [CA]2 [DA] (AB)[Ec] | [EB]6 [Ec]2 [Ed] | [Ae]2 [FA] [EG]3 [=DF]3 | %4
 E6 [CE]2 [CE] | [CA]3- [CA]2 [DA] (AB)[Ec] | [EB]6 [Ee]2 [Ec] | [CA]2 [Fd] [Ec]3 [DB]3 | %8
 [CA]6 [Ec]2 [Ed] | e3- [Ae]2 [Ed] [Ec]2 [Ed] | [Ae]6 [EA]2 [EB] | c3- [Ec]2 [Ae] [Ed]2 [Ec] | %12
 [EB]6 E2 E | A3- [CA]2 [DG] [CA]2 [EB] | [Ec]6 [Ee]2 [Ec] | [CA]2 [Fd] [Ec]3 [DB]3 | [CA]6 |] %17
V:2
 x3 | x6 E2 x | x9 | x9 | E6 x3 | x6 E2 x | x9 | x9 | x9 | A2 A x6 | x9 | E2 E x6 | x6 E2 E | %13
 E2 D x6 | x9 | x9 | x6 |] %17
V:3
 [A,,A,]2 [A,,A,] | [A,,E,]3- [A,,E,]2 [B,,E,] ([C,A,][B,,G,])[A,,A,] | [E,G,]6 A,2 [A,B,] | %3
 [A,C]2 [A,C] B,3 [B,,A,]3 | z2 z2 E,, [A,,A,]2 [A,,A,] x | %5
 [A,,E,]3- [A,,E,]2 [B,,E,] ([C,A,][B,,G,])[A,,A,] | [E,G,]6 [C,A,]2 [A,,A,] | %7
 [F,A,]2 [D,A,] [E,A,]3 [E,G,]3 | [A,,A,]6 A,2 [A,B,] | [A,C]2 [A,C] [A,C]2 [A,B,] A,2 [A,B,] | %10
 [A,C]6 [C,A,]2 [E,G,] | A,2 A, A,2 [A,C] [G,B,]2 A, | [E,G,]6 [E,G,]2 [D,B,] | %13
 [C,A,]2 [B,,E,] [A,,A,]2 [E,B,] [F,A,]2 [E,G,] | A,6 [C,A,]2 [A,,A,] | %15
 [F,A,]2 [D,A,] [E,A,]3 [E,G,]3 | [A,,A,]6 |] %17
V:4
 x3 | x9 | x6 A,2 x | x3 B,3 x3 | ([E,G,]3- C,) [E,G,]3 x2 | x9 | x9 | x9 | x6 A,2 x | x6 A,2 x | %10
 x9 | A,2 A, A,2 x A, x2 | x9 | x9 | A,6 x3 | x9 | x6 |] %17

